!!!!SEGMENT: pl-sa--554-a-ix-34--014_anonim--themma-com-variati.krn
!!!cenid: 18xx:576
!!!COM: Anonim
!!!COM-rismid: pe30004985
!!!CDT:
!!!CNT:
!!!OTL: Themma com Variati
!!!PDT:
!!!AGN: Secular; Variations
!!!SMS-siglum: PL-SA
!!!SMS-shelfmark: 554/A IX 34
!!!SMS-shelfwork: 014 W
!!!SMS-variant:
!!!SMS-altvar:
!!!NIFC-rismid: 1001069906
!!!URL-scan: http://bc.bdsandomierz.pl/dlibra/publication/1310/edition/1278/content
!!!ONB-nifc: Str. 10 (s. 5) – str. 12 (s. 4)
!!!key:
**kern	**kern
*part1	*part1
*staff2	*staff1
*Ipiano	*Iempty
*I"Pianoforte	*
*I'pf	*
*clefF4	*clefG2
*k[]	*k[]
*C:	*C:
*M2/4	*M2/4
*>[A,B,B,C,C,D,F,F,G,G,H,H,I,I,J,K,K,L,L,M,M,N,N,O,O,P,P,R,R,S,S]	*
=1	=1
*>A	*
!LO:TX:t=P:problem=mixed beam	!
8C/L	8.cc/L 8.e/
8c\	.
.	16dd/Jk 16g/
8C/J	8ee\L 8cc\
8r	8ee\J 8cc\
=2	=2
!LO:TX:t=P:problem=mixed beam	!
8GG/L	8ff\L 8dd\
8G\J	8ff\J 8dd\
*	*rep
8GG\L	4dd\ 4b\
8G\J	.
=3	=3
4c\ 4C\	16ee\LL
*	*Xrep
.	16gg\J
.	8cc\J
8B\L 8BB\	8ff\L
8c\J 8C\	8ee\J
=4	=4
8G\L	16dd\LL
.	16cc\
8D\J	16dd\
.	16ee\JJ
8GG/	8dd\L
8r	8g\J
=5!|:	=5!|:
*>B	*
!LO:TX:t=P:problem=mixed beam	!
8C/L	8.cc/L 8.e/
8c\	.
.	16dd/Jk 16g/
8C/J	8ee\L 8cc\
8r	8ee\J 8cc\
=6	=6
!LO:TX:t=P:problem=mixed beam	!
8GG/L	8ff\L 8dd\
8G\J	8ff\J 8dd\
*	*rep
8GG\L	4dd\ 4b\
8G\J	.
=7	=7
!LO:TX:t=P:problem=mixed beam	!
8C\L	16ee\LL
*	*Xrep
.	16ccc\
8F\	16aa\
.	16ff\JJ
8G\	8ee/L 8g/
8GG/J	8dd/J 8f/
=8	=8
!LO:TX:t=P:problem=mixed beam	!
8C/L	8cc/L 8e/
8c\	8cc/ 8e/
8C/J	8cc/J 8e/
8r	8r
=9:|!|:	=9:|!|:
*>C	*
4c\ 4C\	8.gg\L
.	16ee\Jk
4e\ 4E\	8cc\L
.	16ee\L
.	16gg\JJ
=10	=10
4d\ 4D\	8ff\L
.	16ff\L
.	16aa\JJ
4G\ 4GG\	4dd\
=11	=11
4c\ 4C\	16ee\LL
.	16gg\J
.	8cc\J
8B\L 8BB\	8ff\L
8c\J 8C\	8ee\J
=12	=12
8G\L	16dd\LL
.	16cc\
8D\J	16dd\
.	16ee\JJ
!	!LO:TX:a:i:t=ſygnum  Da Capo
4GG/	8dd\L
.	8g\J
!!LO:LB:g=original
=13:|!	=13:|!
*>D	*
*	*8va
!LO:TX:t=P:problem=mixed beam	!
!	!LO:TX:a:t=Vari&colon; \nNo1
8C/L	32ee\LLL
.	32cc\
.	32dd\
.	32ee\JJJ
8c\J	32ff\LLL
.	32gg\
.	32aa\
.	32bb\JJJ
8C/	32ccc\LLL
.	32bb\
.	32aa\
.	32gg\JJJ
8r	32ff/LLL
.	32ee/
.	32dd/
.	32cc/JJJ
=14	=14
!LO:TX:t=P:problem=mixed beam	!
8GG/L	32ff\LLL
.	32dd\
.	32ee\
.	32ff\JJJ
8G\J	32gg\LLL
.	32aa\
.	32bb\
.	32ccc\JJJ
*rep	*
8GG\L	32ddd\LLL
.	32ccc\
.	32bb\
.	32aa\JJJ
8G\J	32gg/LLL
*Xrep	*
.	32ff/
.	32ee/
.	32dd/JJJ
*	*X8va
=15	=15
!	!LO:TX:a:i:t=Loco
4C/	32ee\LLL
.	32cc\
.	32ee\
.	32gg\JJJ
.	32ff\LLL
.	32ee\
.	32dd\
.	32cc\JJJ
8BB/L	32ff\LLL
.	32ee\
.	32ff\
.	32dd\JJJ
8C/J	32ee\LLL
.	32dd\
.	32ee\
.	32cc\JJJ
=16	=16
8G\L	32b\LLL
.	32g\
.	32a\
.	32b\JJJ
8D\J	32cc\LLL
.	32dd\
.	32ee\
.	32ff#X\JJJ
!LO:TX:t=P:problem=mixed beam	!
16GG/LL	8gg\
16Fn\	.
16E\	8r
16D\JJ	.
=17!|:	=17!|:
*>E	*
*	*8va
8C/	32ee\LLL
.	32cc\
.	32dd\
.	32ee\JJJ
8c\	32ff\LLL
.	32gg\
.	32aa\
.	32bb\JJJ
8C/	32ccc\LLL
.	32bb\
.	32aa\
.	32gg\JJJ
8r	32ff\LLL
.	32ee\
.	32dd\
.	32cc\JJJ
=18	=18
!LO:TX:t=P:problem=mixed beam	!
8GG/L	32ff\LLL
.	32dd\
.	32ee\
.	32ff\JJJ
8G\J	32gg\LLL
.	32aa\
.	32bb\
.	32ccc\JJJ
8GG/L	32ddd\LLL
.	32ccc\
.	32bb\
.	32aa\JJJ
8G\J	32gg\LLL
.	32ff\
.	32ee\
.	32dd\JJJ
*	*X8va
*Xrep	*
=19	=19
!	!LO:TX:a:i:t=Loco
8C\L	32ee\LLL
.	32ccc\
.	32bb\
.	32ccc\JJJ
8F\J	32bb\LLL
.	32aa\
.	32gg\
.	32ff\JJJ
!LO:TX:t=P:problem=mixed beam	!
8G\L	8ee\L
8GG/J	8dd\J
!!LO:LB:g=original
=20	=20
16C\LL	8cc/L
16c\	.
16G\	8cc/ 8e/
16E\JJ	.
8C/	8cc/J 8e/
8r	8r
=21:|!|:	=21:|!|:
*>F	*
*	*8va
4C\	32gg\LLL
.	32ee\
.	32ff\
.	32gg\JJJ
.	32aa\LLL
.	32bb\
.	32ccc\
.	32ddd\JJJ
4E\	32eee\LLL
.	32ddd\
.	32ccc\
.	32bb\JJJ
.	32aa\LLL
.	32gg\
.	32ff\
.	32ee\JJJ
=22	=22
4D\	32ff\LLL
.	32dd\
.	32ee\
.	32ff\JJJ
.	32gg\LLL
.	32aa\
.	32bb\
.	32ccc\JJJ
4GG/	32ddd\LLL
.	32ccc\
.	32bb\
.	32aa\
.	32gg\
.	32ff\
.	32ee\
.	32dd\JJJ
*	*X8va
!!LO:LB:g=original
=23	=23
!	!LO:TX:a:i:t=Loco
4C/	32ee\LLL
.	32cc\
.	32ee\
.	32gg\JJJ
.	32ff\LLL
.	32ee\
.	32dd\
.	32cc\JJJ
8BB/L	32ff\LLL
.	32ee\
.	32ff\
.	32dd\JJJ
8C/J	32ee\LLL
.	32dd\
.	32ee\
.	32cc\JJJ
=24	=24
8G\L	32b\LLL
.	32g\
.	32a\
.	32b\JJJ
8D\J	32cc\LLL
.	32dd\
.	32ee\
.	32ff#X\JJJ
!LO:TX:t=P:problem=mixed beam	!
16GG/LL	8gg\
16F\	.
16E\	8r
!	!LO:TX:a:i:t=Ad ſignum Da Capo
16D\JJ	.
!!LO:LB:g=original
=25:|!	=25:|!
*>G	*
!	!LO:TX:a:t=Var&colon; \nNo2.
16EE/LL	8.cc\L
16BB/	.
16GG/	.
.	32qqdd/LLL
.	32qqcc/
.	32qqb/
.	32qqcc/JJJ
16BB/JJ	16dd\Jk
*	*rep
16EE/LL	8ee\L
16BB/	.
16GG/	8ee\J
16BB/JJ	.
=26	=26
16DD/LL	8ff\L
16BB/	.
*	*Xrep
.	32qqgg/LLL
.	32qqff/
.	32qqee/JJJ
16FF/	16ff\L
16BB/JJ	16aa\JJ
16BBB/LL	16dd\LL
16BB/	16ee\
16FF/	16ff\
16BB/JJ	16dd\JJ
=27	=27
16EE/LL	16ee\LL
16BB/	16gg\J
16GG/	8cc\J
16BB/JJ	.
16DD/LL	8ff\L
16BB/	.
16EE/	8ee\J
16BB/JJ	.
=28	=28
8BBB/L	16dd\LL
.	16cc\
8BB/J	16dd\
.	16ee\JJ
16BBB/LL	8dd\L
16AA/	.
16GG/	8g\J
16FF/JJ	.
=29:|!|:	=29:|!|:
*>H	*
16EE/LL	8.cc\L
16BB/	.
16GG/	.
.	32qqdd/LLL
.	32qqcc/
.	32qqb/
.	32qqcc/JJJ
16BB/JJ	16dd\Jk
*	*rep
16EE/LL	8ee\L
16BB/	.
16GG/	8ee\J
16BB/JJ	.
=30	=30
16DD/LL	8ff\L
16BB/	.
*	*Xrep
.	32qqgg/LLL
.	32qqff/
.	32qqee/JJJ
16FF/	16ff\L
16BB/JJ	16aa\JJ
16BBB/LL	16dd\LL
16BB/	16ee\
16FF/	16ff\
16BB/JJ	16dd\JJ
=31	=31
8EE/L	32ee\LLL
.	32ccc\
.	32bb\
.	32ccc\JJJ
8AA/J	32bb\LLL
.	32aa\
.	32gg\
.	32ff\JJJ
8BB/L	8ee\L
8BBB/J	8dd\J
=32	=32
16EE/LL	8cc\L
16BB/	.
16GG/	8cc\
16BB/JJ	.
8EE/	8cc\J
8r	8r
=33:|!|:	=33:|!|:
*>I	*
16EE/LL	8.gg\L
16BB/	.
16GG/	.
.	32qqaa/LLL
.	32qqgg/
.	32qqff#X/
.	32qqgg/JJJ
16BB/JJ	16ee\Jk
*rep	*
16EE/LL	8cc\L
16BB/	.
16GG/	16ee\L
16BB/JJ	16gg\JJ
*Xrep	*
=34	=34
16FF/LL	8ff\L
16BB/	.
.	32qqgg/LLL
.	32qqff/
.	32qqee/JJJ
16AA/	16ff\L
16BB/JJ	16aa\JJ
16DD/LL	16dd\LL
16BB/	16ee\
16BBB/	16ff\
16BB/JJ	16dd\JJ
=35	=35
16EE/LL	16ee\LL
16BB/	16gg\J
16GG/	8cc\J
16BB/JJ	.
16DD/LL	8ff\L
16BB/	.
16CC/	8ee\J
16BB/JJ	.
=36	=36
8BBB/L	16dd\LL
.	16cc\
8BB/J	16dd\
.	16ee\JJ
16BBB/LL	4dd\
16AA/	.
16GG/	.
!	!LO:TX:a:i:t=Ad ſignum Da Capo
16FF/JJ	.
!!LO:LB:g=original
=37:|!	=37:|!
*>J	*
*Xtuplet	*
!	!LO:TX:t=P:problem=klamra łukowa,cyfra
!	!LO:TX:a:t=Var&colon; \nNo3
!	!LO:TUP:b
24c>\	24ryy
24ryy	24e/LL
24ryy	24g/JJ
!	!LO:TX:t=P:problem=klamra łukowa,cyfra
!	!LO:TUP:b
24e>\	24ryy
24ryy	24g/LL
24ryy	24cc/JJ
!	!LO:TX:t=P:problem=klamra łukowa,cyfra
!	!LO:TUP:b
24g>\	24ryy
24ryy	24cc/LL
24ryy	24ee/JJ
!	!LO:TX:t=P:problem=klamra łukowa,cyfra
!	!LO:TUP:b
24cc>\	24ryy
24ryy	24ee/LL
24ryy	24gg/JJ
=38	=38
!	!LO:TX:t=P:problem=klamra łukowa,cyfra
!	!LO:TUP:b
24B>\	24ryy
24ryy	24d/LL
24ryy	24f/JJ
!	!LO:TX:t=P:problem=klamra łukowa,cyfra
!	!LO:TUP:b
24d>\	24ryy
24ryy	24f/LL
24ryy	24b/JJ
!	!LO:TX:t=P:problem=klamra łukowa,cyfra
!	!LO:TUP:b
24g>\	24ryy
24ryy	24b/LL
24ryy	24dd/JJ
!	!LO:TUP:b
!	!LO:TX:t=P:problem=klamra łukowa,cyfra
24b>\	24ryy
24ryy	24dd/LL
24ryy	24ff/JJ
=39	=39
!	!LO:TUP:a:problem=klamra łukowa i cyfra
!	!LO:TUP:b
24cc>\	24ryy
24ryy	24ee/LL
24ryy	24gg/JJ
!	!LO:TX:t=P:problem=klamra łukowa,cyfra
!	!LO:TUP:b
24g>\	24ryy
24ryy	24cc/LL
24ryy	24ee/JJ
!	!LO:TX:t=P:problem=klamra łukowa,cyfra
!	!LO:TUP:b
24g>\	24ryy
24ryy	24dd/LL
24ryy	24ff/JJ
!	!LO:TX:t=P:problem=klamra łukowa,cyfra
!	!LO:TUP:b
24b>\	24ryy
24ryy	24cc/LL
24ryy	24ee/JJ
=40	=40
!	!LO:TX:t=P:problem=klamra łukowa,cyfra
!	!LO:TUP:b
24g>\	24ryy
24ryy	24b/LL
24ryy	24dd/JJ
*	*Xtuplet
24ryy	24gg/LL
24ryy	24dd/
24ryy	24b/JJ
24ryy	16g/LL
24ryy	.
.	16f/
24ryy	.
24ryy	16e/
24ryy	.
.	16d/JJ
24ryy	.
=41:|!|:	=41:|!|:
*>K	*
24c>\	24ryy
24ryy	24e/LL
24ryy	24g/JJ
24e>\	24ryy
24ryy	24g/LL
24ryy	24cc/JJ
24g>\	24ryy
24ryy	24cc/LL
24ryy	24ee/JJ
24cc>\	24ryy
24ryy	24ee/LL
24ryy	24gg/JJ
=42	=42
24B>\	24ryy
24ryy	24d/LL
24ryy	24f/JJ
24d>\	24ryy
24ryy	24f/LL
24ryy	24b/JJ
24f>\	24ryy
24ryy	24b/LL
24ryy	24dd/JJ
24b>\	24ryy
24ryy	24dd/LL
24ryy	24ff/JJ
=43	=43
2ryy	24ee\LL
.	24ccc\
.	24bb\JJ
.	24aa\LL
.	24gg\
.	24ff\JJ
.	8ee\L
.	8dd\J
=44	=44
2ryy	8cc/L
.	8cc/ 8e/
.	8cc/J 8e/
.	8r
!!LO:LB;g=original
=45:|!|:	=45:|!|:
*>L	*
*	*tuplet
!	!LO:TX:t=P:problem=klamra łukowa,cyfra
!	!LO:TUP:b
24cc>\	24ryy
24ryy	24ee/LL
24ryy	24gg/JJ
!	!LO:TX:t=P:problem=klamra łukowa,cyfra
!	!LO:TUP:b
24g>\	24ryy
24ryy	24cc/LL
24ryy	24ee/JJ
!	!LO:TX:t=P:problem=klamra łukowa,cyfra
!	!LO:TUP:b
24e>\	24ryy
24ryy	24g/LL
24ryy	24cc/JJ
!	!LO:TX:t=P:problem=klamra łukowa,cyfra
!	!LO:TUP:b
24g>\	24ryy
24ryy	24cc/LL
24ryy	24ee/JJ
=46	=46
!	!LO:TX:t=P:problem=klamra łukowa,cyfra
!	!LO:TUP:b
24b>\	24ryy
24ryy	24dd/LL
24ryy	24ff/JJ
!	!LO:TX:t=P:problem=klamra łukowa,cyfra
!	!LO:TUP:b
24g>\	24ryy
24ryy	24a/LL
24ryy	24dd/JJ
!	!LO:TX:t=P:problem=klamra łukowa,cyfra
!	!LO:TUP:b
24d>\	24ryy
24ryy	24f/LL
24ryy	24b/JJ
!	!LO:TX:t=P:cyfra:problem
!	!LO:TUP:b
24g>\	24ryy
24ryy	24b/LL
24ryy	24dd/JJ
=47	=47
!	!LO:TUP:b
24cc>\	24ryy
24ryy	24ee/LL
24ryy	24gg/JJ
!	!LO:TX:t=P:problem=klamra łukowa,cyfra
!	!LO:TUP:b
24g>\	24ryy
24ryy	24cc/LL
24ryy	24ee/JJ
!	!LO:TUP:a:problem=klamra łukowa i cyfra
!	!LO:TUP:b
24g>\	24ryy
24ryy	24dd/LL
24ryy	24ff/JJ
!	!LO:TUP:a:problem=klamra łukowa i cyfra
!	!LO:TUP:b
24g>\	24ryy
24ryy	24cc/LL
24ryy	24ee/JJ
=48	=48
*	*^
!	!LO:TUP:a:problem=klamra łukowa i cyfra	!
24g>\	24g/LL	16ryy
24ryy	24b/	.
.	.	16ryy
24ryy	24dd/JJ	.
!	!LO:TX:t=P:problem=klamra łukowa,cyfra	!
24ryy	24gg/LL	8ryy
24ryy	24dd/	.
24ryy	24b/JJ	.
24ryy	16g/LL	4ryy
24ryy	.	.
.	16f/	.
24ryy	.	.
24ryy	16e/	.
24ryy	.	.
!	!LO:TX:b:i:t=Ad ſignum Da Capo	!
.	16d/JJ	.
24ryy	.	.
*	*v	*v
!!LO:PB:g=original
=49:|!|:	=49:|!|:
*>M	*
*clefG2	*
*tuplet	*
!LO:TUP:b	!LO:TX:a:t=Var&colon; \nNo4
24c/LL	8.cc\L
24e/	.
24g/JJ	.
*rep	*
!LO:TUP:b	!
24c/LL	.
24e/	.
.	16dd\Jk
24g/JJ	.
*Xrep	*
*rep	*
24c/LL	8ee\L
24e/	.
24g/JJ	.
*Xrep	*
*rep	*
24c/LL	8ee\J
24e/	.
24g/JJ	.
*Xrep	*
=50	=50
*Xtuplet	*
24d/LL	8ff\L
24f/	.
24g/JJ	.
*rep	*
24d/LL	8ff\J
24f/	.
24g/JJ	.
*Xrep	*
24B/LL	4dd\
24d/	.
24g/JJ	.
*rep	*
24B/	.
24d/	.
24g/	.
*Xrep	*
=51	=51
24c/LL	16ee\LL
24e/	.
.	16gg\J
24g/JJ	.
*rep	*
24c/LL	8cc\J
24e/	.
24g/JJ	.
*Xrep	*
24B/LL	8ff\L
24d/	.
24g/JJ	.
*rep	*
24c/LL	8ee\J
24e/	.
24g/JJ	.
*Xrep	*
=52	=52
8G/L	16dd\LL
.	16cc\
8g/J	16dd\
.	16ee\JJ
16G/LL	8dd\L
16f/	.
16e/	8g\J
16d/JJ	.
=53:|!|:	=53:|!|:
*>N	*
24c/LL	8.cc\L
24e/	.
24g/JJ	.
*rep	*
24c/LL	.
24e/	.
.	16dd\Jk
24g/JJ	.
*Xrep	*
*rep	*
24c/LL	8ee\L
24e/	.
24g/JJ	.
*Xrep	*
*rep	*
24c/LL	8ee\J
24e/	.
24g/JJ	.
*Xrep	*
=54	=54
24d/LL	8ff\L
24f/	.
24g/JJ	.
*rep	*
24d/LL	8ff\J
24f/	.
24g/JJ	.
*Xrep	*
24B/LL	4dd\
24d/	.
24g/JJ	.
*rep	*
24B/LL	.
24d/	.
24g/JJ	.
*Xrep	*
=55	=55
*	*Xtuplet
8c/L	24ee\LL
*Xrep	*
.	24ccc\
.	24bb\JJ
8f/J	24aa\LL
.	24gg\
.	24ff\JJ
8g/L	8ee\L
8G/J	8dd\J
*clefF4	*
=56	=56
24C\LL	8cc/L
24c\	.
24B\JJ	.
24c\LL	8cc/J 8e/
24G\	.
24E\JJ	.
8C/	8cc/ 8e/
8r	8r
=57:|!|:	=57:|!|:
*>O	*
*clefG2	*
24c/LL	8.gg\L
24e/	.
24g/JJ	.
*rep	*
24c/LL	.
24e/	.
.	16ff\Jk
24g/JJ	.
*Xrep	*
*rep	*
24c/LL	8cc\L
24e/	.
24g/JJ	.
*Xrep	*
*rep	*
24c/LL	16ee\L
24e/	.
.	16gg\JJ
24g/JJ	.
*Xrep	*
=58	=58
24d/LL	8ff\L
24f/	.
24g/JJ	.
*rep	*
24d/LL	8ff\J
24f/	.
24g/JJ	.
*Xrep	*
*rep	*
24B/LL	4dd\
24d/	.
24g/JJ	.
*Xrep	*
*rep	*
24G/LL	.
24d/	.
24g/JJ	.
*Xrep	*
=59	=59
24c/LL	16ee\LL
24e/	.
.	16gg\J
24g/JJ	.
*rep	*
24c/LL	8cc\J
24e/	.
24g/JJ	.
*Xrep	*
24B/LL	8ff\L
24d/	.
24g/JJ	.
24c/LL	8ee\J
24e/	.
24g/JJ	.
=60	=60
8G/L	16dd\LL
.	16cc\
8g/J	16dd\
.	16ee\JJ
24G/LL	8dd\L
24B/	.
24d/JJ	.
24f/LL	8g\J
24e/	.
24d/JJ	.
!!LO:LB:g=original
=61:|!|:	=61:|!|:
*>P	*
*clefF4	*
!	!LO:TX:a:t=Vari&colon; \nN&colon; 5
32C\LLL	4gg\ 4dd\
32c\	.
32B\	.
32c\JJJ	.
32G\LLL	.
32c\	.
32E\	.
32c\JJJ	.
8C/	16r
.	16ee\LL 16cc\
8r	16ff\ 16dd\
.	16gg\JJ 16ee\
=62	=62
32GG\LLL	4ff\ 4dd\
32G\	.
32F#X\	.
32G\JJJ	.
32D\LLL	.
32G\	.
32BB\	.
32D\JJJ	.
8GG/	16r
.	16dd\LL 16b\
8r	16ee\ 16cc\
.	16ff\JJ 16dd\
=63	=63
32C\LLL	8ee\L 8cc\
32c\	.
32B\	.
32c\JJJ	.
*rep	*
32C\LLL	8ee\J 8cc\
32c\	.
32B\	.
32c\JJJ	.
*Xrep	*
32BB\LLL	8ff\L 8dd\
32B\	.
32A\	.
32B\JJJ	.
*Xrep	*
32C\LLL	8ee\J 8cc\
32c\	.
32B\	.
32c\JJJ	.
=64	=64
32GG\LLL	8dd\L 8b\
32G\	.
32F#X\	.
32G\JJJ	.
32D\LLL	8gg\J 8dd\ 8b\
32G\	.
32BB\	.
32D\JJJ	.
16GG\LL	8gg\ 8dd\ 8b\
16Fn\	.
16E\	8r
16D\JJ	.
=65:|!|:	=65:|!|:
*>R	*
32C\LLL	4gg\ 4ee\
32c\	.
32B\	.
32c\JJJ	.
32G\LLL	.
32c\	.
32E\	.
32G\JJJ	.
8C/	16r
.	16ee\LL 16cc\
8r	16ff\ 16dd\
.	16gg\JJ 16ee\
=66	=66
32GG\LLL	4ff\ 4dd\
32G\	.
32F#X\	.
32G\JJJ	.
32D\LLL	.
32G\	.
32BB\	.
32D\JJJ	.
8GG/	16r
.	16dd\LL 16b\
8r	16ee\ 16cc\
.	16ff\JJ 16dd\
!!LO:LB:g=original
=67	=67
32C\LLL	8ee\L 8cc\
32c\	.
32B\	.
32c\JJJ	.
!LO:TX:t=P:problem=mixed beam	!
32FF/LLL	8ff\J 8dd\
32F\	.
32E\	.
32F\JJJ	.
32GG\LLL	8ee\L 8cc\
32G\	.
32F#X\	.
32G\JJJ	.
*rep	*
32GG\LLL	8dd\J 8b\
32G\	.
32F#\	.
32G\JJJ	.
=68	=68
32C\LLL	8cc\
32c\	.
32e\	.
32c\JJJ	.
*Xrep	*
32G\LLL	8cc/ 8e/
32c\	.
32E\	.
32G\JJJ	.
8C/	8cc/ 8e/
8r	8r
=69:|!|:	=69:|!|:
*>S	*
32C\LLL	4gg\ 4ee\
32G\	.
32F#X\	.
32G\JJJ	.
32E\LLL	.
32G\	.
32F#\	.
32G\JJJ	.
32c\LLL	8ee\L 8cc\
32G\	.
32F#\	.
32G\JJJ	.
32E\LLL	8gg\J 8ee\
32G\	.
32F#\	.
32G\JJJ	.
=70	=70
32D\LLL	4ff\ 4dd\
32G\	.
32F#X\	.
32G\JJJ	.
32F#\LLL	.
32G\	.
32F#\	.
32G\JJJ	.
32B\LLL	8dd\L 8b\
32G\	.
32F#\	.
32G\JJJ	.
32D\LLL	8ff\J 8dd\
32G\	.
32F#\	.
32G\JJJ	.
=71	=71
32C\LLL	8ee\L 8cc\
32c\	.
32B\	.
32c\JJJ	.
*rep	*
32C\LLL	8ff\J 8cc\
32c\	.
32B\	.
32c\JJJ	.
*Xrep	*
32D\LLL	8ff\L 8dd\
32B\	.
32A\	.
32B\JJJ	.
32C\LLL	8ee\J 8cc\
32c\	.
32B\	.
32c\JJJ	.
!!LO:LB:g=original
=72	=72
32GG\LLL	8dd\ 8b\
32G\	.
32F#X\	.
32G\JJJ	.
32D\LLL	8gg\ 8dd\ 8b\
32G\	.
32BB\	.
32D\JJJ	.
16GG\LL	8gg\ 8dd\ 8b\
16Fn\	.
16E\	8r
!	!LO:TX:a:i:t=Ad ſignum Da Capo
16D\JJ	.
=:|!	=:|!
*-	*-
!!!system-decoration: {(s1,s2)}
!!!RDF**kern: > = above
!!!RDF**kern: < = below
!!!EED: Leszek Kubiak
!!!EST: 2021-04-26
!!!AIN: 1 piano
!!!ENC: Tomasz Grochalski
!!!END: 2020-06-18
